img/work/logo-cryptosigma.svg

<?xml version="1.0" encoding="UTF-8" standalone="no"?>
<svg width="40px" height="40px" viewBox="0 0 40 40" version="1.1" xmlns="http://www.w3.org/2000/svg" xmlns:xlink="http://www.w3.org/1999/xlink">
    <!-- Generator: Sketch 41 (35326) - http://www.bohemiancoding.com/sketch -->
    <title>Imported Layers + Imported Layers</title>
    <desc>Created with Sketch.</desc>
    <defs></defs>
    <g id="Content-real" stroke="none" stroke-width="1" fill="none" fill-rule="evenodd">
        <g id="Work-Copy" transform="translate(-934.000000, -6897.000000)" fill="#FFFFFF">
            <g id="Imported-Layers-+-Imported-Layers" transform="translate(934.000000, 6897.000000)">
                <path d="M20.3484024,1.9062726 C27.5697342,1.9062726 33.8182858,5.93709939 36.8232058,11.8011722 L28.7993664,11.8011722 L28.7993664,8.33879536 L11.8972323,8.33879536 L21.7431537,19.9336576 L11.8972323,31.0522509 L28.7993664,31.0522509 L28.7993664,28.4971193 L36.3237257,28.4971193 C33.1598708,33.8655693 27.1908467,37.4847737 20.3484024,37.4847737 C10.1978044,37.4847737 1.96926673,29.5200898 1.96926673,19.6954234 C1.96926673,9.87075695 10.1978044,1.9062726 20.3484024,1.9062726 M0,19.6954234 C0,30.5554309 9.12834391,39.3908467 20.3484024,39.3908467 C27.6404406,39.3908467 34.4173321,35.5785011 38.0340791,29.441676 L39.7143359,26.5910463 L26.8303058,26.5910463 L26.8303058,29.1459783 L16.1787847,29.1459783 L24.3141465,19.959596 L16.0647886,10.2448684 L26.8303058,10.2448684 L26.8303058,13.7074448 L39.9981923,13.7074448 L38.5875682,10.9543833 C35.1250148,4.19763063 28.1362102,3.55271368e-15 20.3484024,3.55271368e-15 C9.12834391,3.55271368e-15 0,8.83541589 0,19.6954234 Z" id="Imported-Layers"></path>
            </g>
        </g>
    </g>
</svg>

<svg width="40" height="40" viewBox="0 0 40 40" xmlns="http://www.w3.org/2000/svg"><title>Imported Layers + Imported Layers</title><path d="M20.348 1.906c7.222 0 13.47 4.031 16.475 9.895H28.8V8.34H11.897l9.846 11.595-9.846 11.118H28.8v-2.555h7.525c-3.164 5.369-9.133 8.988-15.976 8.988-10.15 0-18.379-7.965-18.379-17.79 0-9.824 8.229-17.789 18.38-17.789M0 19.696C0 30.555 9.128 39.39 20.348 39.39c7.292 0 14.07-3.812 17.686-9.95l1.68-2.85H26.83v2.555H16.18l8.135-9.186-8.25-9.715H26.83v3.462h13.168l-1.41-2.753C35.125 4.198 28.136 0 20.348 0 9.128 0 0 8.835 0 19.695z" fill="#FFF" fill-rule="evenodd"/></svg>
